icons/award-17.svg

<svg width="16" height="17" viewBox="0 0 16 17" fill="none" xmlns="http://www.w3.org/2000/svg">
<path fill-rule="evenodd" clip-rule="evenodd" d="M5.56976 9.34374C4.61542 8.6127 4 7.46141 4 6.16638C4 3.95724 5.79086 2.16638 8 2.16638C10.2091 2.16638 12 3.95724 12 6.16638C12 7.46114 11.3848 8.61223 10.4308 9.34329L10.9957 13.6006C11.0209 13.7909 10.935 13.9789 10.7745 14.0843C10.614 14.1897 10.4074 14.1939 10.2428 14.0951L8.00001 12.7495L5.75726 14.0951C5.59262 14.1939 5.38596 14.1897 5.22549 14.0843C5.06502 13.9789 4.97909 13.7909 5.00436 13.6005L5.56976 9.34374ZM5 6.16638C5 4.50953 6.34315 3.16638 8 3.16638C9.65685 3.16638 11 4.50953 11 6.16638C11 7.20712 10.47 8.12409 9.66527 8.66213C9.63675 8.67689 9.60994 8.69426 9.58511 8.7139C9.12518 9.00069 8.58194 9.16638 8 9.16638C6.34315 9.16638 5 7.82324 5 6.16638ZM9.49306 9.87843C9.03173 10.0642 8.5278 10.1664 8 10.1664C7.47241 10.1664 6.96867 10.0642 6.50749 9.87865L6.13223 12.704L7.74276 11.7376C7.90111 11.6426 8.09892 11.6426 8.25726 11.7376L9.86795 12.7041L9.49306 9.87843Z" fill="#272431"/>
</svg>

<svg xmlns="http://www.w3.org/2000/svg" width="16" height="17" viewBox="0 0 16 17"><path fill-rule="evenodd" d="M5.57 9.344a4 4 0 114.861 0l.565 4.257a.5.5 0 01-.753.494L8 12.75l-2.243 1.346a.5.5 0 01-.753-.495l.566-4.256zM5 6.166a3 3 0 116 0 3 3 0 01-6 0zm4.493 3.712A3.988 3.988 0 018 10.166a3.99 3.99 0 01-1.493-.287l-.375 2.825 1.61-.966a.5.5 0 01.515 0l1.611.966-.375-2.826z"/></svg>
